X:1
T:When the Work's All Done This Fall
M:4/4
L:1/8
K:D
 A| DD FA d d2 d| eE EE E3 E| E3/2 F/2 GA cc cA| BA AG F2 A2| DD FA d d2 d|\
 eG GG G3 F| E3/2 F/2 GA c c2 A| B3/2 A/2 GE D3||

